icons/op-group-24.svg

<svg width="24" height="24" viewBox="0 0 24 24" fill="none" xmlns="http://www.w3.org/2000/svg">
<path d="M19.8057 14.9843C19.4935 14.5131 19.4935 14.2304 18.5255 13.822C17.5263 13.4136 17.3077 13.2565 17.3077 13.2565L17.2765 12.3141C17.2765 12.3141 17.6512 12.0314 17.7761 11.1518C17.9947 11.2147 18.2445 10.8063 18.2445 10.5864C18.2757 10.3665 18.2132 9.76963 17.9322 9.83246C17.9947 9.39267 18.0571 9.01571 18.0259 8.79581C17.9634 8.04188 17.214 7.22513 16.0587 7.22513C14.9034 7.22513 14.154 8.04188 14.0916 8.79581C14.0603 9.01571 14.0916 9.39267 14.154 9.83246C13.873 9.76963 13.8418 10.3665 13.8418 10.5864C13.873 10.8063 14.0916 11.2147 14.3414 11.1518C14.435 12.0314 14.8097 12.3141 14.8097 12.3141L13.9979 12.9738C14.4663 13.2251 15.6528 13.0681 15.9026 13.4764C16.0587 13.6963 16.4334 14.3246 16.3397 18H19.9931C19.9931 18 20.0555 15.3927 19.8057 14.9843ZM14.7785 14.6387C14.435 14.1361 13.3422 13.822 12.2493 13.3508C11.1564 12.8796 10.8754 12.7225 10.8754 12.7225V11.6859C10.8754 11.6859 11.2813 11.3717 11.4062 10.3665C11.656 10.4293 11.937 9.98953 11.9683 9.73822C11.9683 9.48691 11.9058 8.85864 11.5936 8.92147C11.656 8.41885 11.7185 7.97906 11.6872 7.75916C11.6248 6.91099 10.7817 6 9.50149 6C8.22127 6 7.3782 6.91099 7.31575 7.75916C7.28453 7.97906 7.34698 8.41885 7.40943 8.92147C7.09718 8.85864 7.03473 9.48691 7.03473 9.73822C7.06595 9.98953 7.31575 10.4293 7.59678 10.3665C7.72168 11.3403 8.1276 11.6859 8.1276 11.6859V12.7225C8.1276 12.7225 7.84658 12.8796 6.7537 13.3508C5.66083 13.822 4.56796 14.1361 4.22449 14.6387C3.94346 15.1099 4.00591 18 4.00591 18H14.9971C14.9971 18 15.0595 15.1099 14.7785 14.6387Z" fill="black"/>
</svg>

<svg xmlns="http://www.w3.org/2000/svg" width="24" height="24" viewBox="0 0 24 24"><path d="M19.806 14.984c-.312-.471-.312-.754-1.28-1.162-1-.408-1.218-.565-1.218-.565l-.032-.943s.375-.283.5-1.162c.219.063.468-.346.468-.566.032-.219-.031-.816-.312-.754.063-.439.125-.816.094-1.036-.063-.754-.812-1.571-1.967-1.571-1.156 0-1.905.817-1.967 1.571-.032.22 0 .597.062 1.036-.281-.062-.312.535-.312.754.031.22.25.629.499.566.094.879.469 1.162.469 1.162l-.812.66c.468.251 1.655.094 1.905.502.156.22.53.849.437 4.524h3.653s.062-2.607-.187-3.016Zm-5.028-.345c-.343-.503-1.436-.817-2.529-1.288-1.093-.471-1.374-.628-1.374-.628v-1.037s.406-.314.531-1.319c.25.062.531-.377.562-.629 0-.251-.062-.879-.374-.817.062-.502.125-.942.093-1.162C11.625 6.911 10.782 6 9.501 6c-1.28 0-2.123.911-2.185 1.759-.031.22.031.66.093 1.162-.312-.062-.374.566-.374.817.031.252.281.691.562.629.125.973.531 1.319.531 1.319v1.037s-.281.157-1.374.628-2.186.785-2.53 1.288C3.943 15.11 4.006 18 4.006 18h10.991s.062-2.89-.219-3.361Z"/></svg>
